X:1
T:Title
%%score 1 { ( 2 4 6 ) | ( 3 5 7 ) }
L:1/8
M:6/8
K:F
V:1 treble nm="Choir Aahs"
V:2 treble nm="Grand Piano"
V:4 treble 
V:6 treble 
V:3 treble 
V:5 treble 
V:7 treble 
V:1
 z6[Q:1/4=100] | z6 | z3 z2 c | dcA FGA | c3 B2 A | G3 A2 G | F3- F2 A | GAB Bcd | d3 c2 A | %9
 FGA A2 F | A3- A2 F | FGA A3- | A6- | A6 | G6 | F6 | z6 | z6 | z6 | z6 | z6 | z6 | z6 | z6 | z6 | %25
 z6 | z6 | z3 z2 c | dcA FGA | c3 B2 A | G3 A2 G | F3- F2 A | GAB Bcd | d3 c2 A | FGA A2 F | %35
 A3- A2 F | FGA A3- | A6- | A6 | G6 | F6 | z6 | z6 | z6 | z6 | z6 | z6 | z6 | z6 | z6 | z6 | z6 | %52
 z3 z2 c | dcA FGA | c3 B2 A | G3 A2 G | F3- F2 A | GAB Bcd | d3 c2 A | FGA A2 F | A3- A2 F | %61
 FGA A3- | A6- | A6 | G6 | F6 | z6 | z6 | z6 | z6 | z6 | z6 | z6 | z6 | z6 | z6 | z6 | z6 |] %78
V:2
 z3 z2 F | dcA FAc | dcA FAc | dcA FGA | [Gc]3 [FB]2 [EA] | [B,EG]3 [CEA]2 [B,EG] | %6
 [A,CF]3- [A,CF]2 [CFA] | [EG][EA][EB] [EB][Ec][Ed] | [EGd]3 [Fc]2 [CFA] | FGA A2 F | %10
 [=B,FA]3 [B,FA]2 [FA] | FGA F-[F-B][Fc] | [Fd][Fc]F Acf | a6 | [Gce]6 | dcA z Ac | %16
 [FBf]3 .[EBe]3 | [EBd]3 .[EBc]3 | [FAc]6 | .[_Ed]3 z Ac | [DFc]3 [^CEB]2 [_EA] | %21
 [=B,DG]3 .[_B,^CA]3 | [A,CF]6 | z6 | z6 | z6 | dcA FAc | dcA FAc | dcA FGA | [Gc]3 [FB]2 [EA] | %30
 [B,EG]3 [CEA]2 [B,EG] | [A,CF]3- [A,CF]2 [CFA] | [EG][EA][EB] [EB][Ec][Ed] | [EGd]3 [Fc]2 [CFA] | %34
 FGA A2 F | [=B,FA]3 [B,FA]2 [FA] | FGA F-[F-B][Fc] | [Fd][Fc]F Acf | a6 | [Gce]6 | dcA z Ac | %41
 [FBf]3 .[EBe]3 | [EBd]3 .[EBc]3 | [FAc]6 | .[_Ed]3 z Ac | [DFc]3 [^CEB]2 [_EA] | %46
 [=B,DG]3 .[_B,^CA]3 | [A,CF]6 | z6 | z6 | z6 | dcA FAc | dcA FAc | dcA FGA | [Gc]3 [FB]2 [EA] | %55
 [B,EG]3 [CEA]2 [B,EG] | [A,CF]3- [A,CF]2 [CFA] | [EG][EA][EB] [EB][Ec][Ed] | [EGd]3 [Fc]2 [CFA] | %59
 FGA A2 F | [=B,FA]3 [B,FA]2 [FA] | FGA F-[F-B][Fc] | [Fd][Fc]F Acf | a6 | [Gce]6 | dcA z Ac | %66
 [FBf]3 .[EBe]3 | [EBd]3 .[EBc]3 | [FAc]6 | .[_Ed]3 z Ac | [DFc]3 [^CEB]2 [_EA] | %71
 [=B,DG]3 .[_B,^CA]3 | [A,CF]6 | z6 | z6 | z6 | [C,A,Fcf]6 | [C,A,Fcf]6 |] %78
V:3
 z6 | AFC A,CF | AFC A,CF | AFC A,CF | E3 D2 C | C,3 C,2 C, | D,C,A,, F,,A,,C, | %7
 [B,,C,][A,,C,][G,,C,] [G,,C,][A,,C,][B,,C,] | [B,,C,]3 [A,,C,]2 [A,,F,] | %9
 [D,A,C][D,G,C][D,F,C] [D,F,C]2 [D,A,C] | [G,,D,]3 [G,,D,]2 [D,G,=B,] | %11
 [C,C]-[C,-B,C][C,C] z B,A, | [C,A,][C,A,]A,[K:treble] CFA | c6 | [C,B,]6 | F,,3- [F,,A,]3 | %16
 C,3 z2[K:treble] c | C,3 z2[K:treble] d | C,3 A,3 | z[K:treble] cA[K:bass] F,3 | z3 z2 C | %21
 z3 z2 G | F,,2 A,, C,D,C, | A,,F,,A,, C,D,F, | A,CD CA,F, | A,[K:treble]CD FAc | AFC A,CF | %27
 AFC A,CF | AFC A,CF | E3 D2 C | C,3 C,2 C, | D,C,A,, F,,A,,C, | %32
 [B,,C,][A,,C,][G,,C,] [G,,C,][A,,C,][B,,C,] | [B,,C,]3 [A,,C,]2 [A,,F,] | %34
 [D,A,C][D,G,C][D,F,C] [D,F,C]2 [D,A,C] | [G,,D,]3 [G,,D,]2 [D,G,=B,] | %36
 [C,C]-[C,-B,C][C,C] z B,A, | [C,A,][C,A,]A,[K:treble] CFA | c6 | [C,B,]6 | F,,3- [F,,A,]3 | %41
 C,3 z2[K:treble] c | C,3 z2[K:treble] d | C,3 A,3 | z[K:treble] cA[K:bass] F,3 | z3 z2 C | %46
 z3 z2 G | F,,2 A,, C,D,C, | A,,F,,A,, C,D,F, | A,CD CA,F, | A,[K:treble]CD FAc | AFC A,CF | %52
 AFC A,CF | AFC A,CF | E3 D2 C | C,3 C,2 C, | D,C,A,, F,,A,,C, | %57
 [B,,C,][A,,C,][G,,C,] [G,,C,][A,,C,][B,,C,] | [B,,C,]3 [A,,C,]2 [A,,F,] | %59
 [D,A,C][D,G,C][D,F,C] [D,F,C]2 [D,A,C] | [G,,D,]3 [G,,D,]2 [D,G,=B,] | %61
 [C,C]-[C,-B,C][C,C] z B,A, | [C,A,][C,A,]A,[K:treble] CFA | c6 | [C,B,]6 | F,,3- [F,,A,]3 | %66
 C,3 z2[K:treble] c | C,3 z2[K:treble] d | C,3 A,3 | z[K:treble] cA[K:bass] F,3 | z3 z2 C | %71
 z3 z2 G | F,,A,,C, D,C,A,, | F,,A,,C, D,F,A, | CDC A,F,A, | CDF Acd | F,,6 | F,,6 |] %78
V:4
 x6 | x6 | x6 | x6 | x6 | x6 | x6 | x6 | x6 | x6 | x6 | z3 .[CA]3 | x6 | x6 | x6 | [Ff-]3 f3 | x6 | %17
 x6 | x6 | z3 _E3 | x6 | x6 | x6 | x6 | x6 | x6 | x6 | x6 | x6 | x6 | x6 | x6 | x6 | x6 | x6 | x6 | %36
 z3 .[CA]3 | x6 | x6 | x6 | [Ff-]3 f3 | x6 | x6 | x6 | z3 _E3 | x6 | x6 | x6 | x6 | x6 | x6 | x6 | %52
 x6 | x6 | x6 | x6 | x6 | x6 | x6 | x6 | x6 | z3 .[CA]3 | x6 | x6 | x6 | [Ff-]3 f3 | x6 | x6 | x6 | %69
 z3 _E3 | x6 | x6 | x6 | x6 | x6 | x6 | x6 | x6 |] %78
V:5
 x6 | x6 | x6 | x6 | x6 | x6 | x6 | x6 | x6 | x6 | x6 | .A,3 C,3 | x3[K:treble] x3 | x6 | x6 | %15
 C,3 z3 | z3 G,3[K:treble] | z3 G,3[K:treble] | F,,6 | F,,6[K:treble][K:bass] | z3 F,3 | z3 F,3 | %22
 x6 | x6 | x6 | x[K:treble] x5 | x6 | x6 | x6 | x6 | x6 | x6 | x6 | x6 | x6 | x6 | .A,3 C,3 | %37
 x3[K:treble] x3 | x6 | x6 | C,3 z3 | z3 G,3[K:treble] | z3 G,3[K:treble] | F,,6 | %44
 F,,6[K:treble][K:bass] | z3 F,3 | z3 F,3 | x6 | x6 | x6 | x[K:treble] x5 | x6 | x6 | x6 | x6 | %55
 x6 | x6 | x6 | x6 | x6 | x6 | .A,3 C,3 | x3[K:treble] x3 | x6 | x6 | C,3 z3 | z3 G,3[K:treble] | %67
 z3 G,3[K:treble] | F,,6 | F,,6[K:treble][K:bass] | z3 F,3 | z3 F,3 | x6 | x6 | x6 | x6 | x6 | %77
 x6 |] %78
V:6
 x6 | x6 | x6 | x6 | x6 | x6 | x6 | x6 | x6 | x6 | x6 | x6 | x6 | x6 | x6 | z3 F3 | x6 | x6 | x6 | %19
 x6 | x6 | x6 | x6 | x6 | x6 | x6 | x6 | x6 | x6 | x6 | x6 | x6 | x6 | x6 | x6 | x6 | x6 | x6 | %38
 x6 | x6 | z3 F3 | x6 | x6 | x6 | x6 | x6 | x6 | x6 | x6 | x6 | x6 | x6 | x6 | x6 | x6 | x6 | x6 | %57
 x6 | x6 | x6 | x6 | x6 | x6 | x6 | x6 | z3 F3 | x6 | x6 | x6 | x6 | x6 | x6 | x6 | x6 | x6 | x6 | %76
 x6 | x6 |] %78
V:7
 x6 | x6 | x6 | x6 | x6 | x6 | x6 | x6 | x6 | x6 | x6 | x6 | x3[K:treble] x3 | x6 | x6 | x6 | %16
 F,,6[K:treble] | F,,6[K:treble] | x6 | x[K:treble] x2[K:bass] x3 | F,,6 | F,,6 | x6 | x6 | x6 | %25
 x[K:treble] x5 | x6 | x6 | x6 | x6 | x6 | x6 | x6 | x6 | x6 | x6 | x6 | x3[K:treble] x3 | x6 | %39
 x6 | x6 | F,,6[K:treble] | F,,6[K:treble] | x6 | x[K:treble] x2[K:bass] x3 | F,,6 | F,,6 | x6 | %48
 x6 | x6 | x[K:treble] x5 | x6 | x6 | x6 | x6 | x6 | x6 | x6 | x6 | x6 | x6 | x6 | %62
 x3[K:treble] x3 | x6 | x6 | x6 | F,,6[K:treble] | F,,6[K:treble] | x6 | %69
 x[K:treble] x2[K:bass] x3 | F,,6 | F,,6 | x6 | x6 | x6 | x6 | x6 | x6 |] %78

